icons/glyphs/glyph-phone.svg

<?xml version="1.0" encoding="UTF-8" standalone="no"?><svg height="16" viewBox="0 0 4.2333332 4.2333332" width="16" xmlns="http://www.w3.org/2000/svg"><sodipodi:namedview/><metadata><rdf:RDF><cc:Work><dc:format>image/svg+xml</dc:format><dc:type/><dc:title/></cc:Work></rdf:RDF></metadata><path d="m .88867188 5.3339844h2.66796872c.8892571.0000015.8886719.8886718.8886719.8886718v.4433594c.0000008.7386063.5934254 1.3339829 1.3320313 1.3339844h4.4453122c.738605-.0000011 1.332031-.5953819 1.332032-1.3339844v-.4433594c0 .0000001-.00059-.8886699.888671-.8886718h2.667969c.889267.0000004.888672.8886718.888672.8886718v1.3925782c-1.081233 1.82387-3.049554 3.0507816-5.332031 3.0507816h-5.3359378c-2.2824764 0-4.2507863-1.2269331-5.3320312-3.0507816v-1.3925782c0 .0000001-.00059292-.8886677.88867188-.8886718z" fill="#d0d0d0" stroke-width="2.167" transform="scale(.26458333)"/></svg>

<?xml version="1.0" encoding="UTF-8" standalone="no"?>
<!-- Created with Inkscape (http://www.inkscape.org/) -->

<svg
   xmlns:dc="http://purl.org/dc/elements/1.1/"
   xmlns:cc="http://creativecommons.org/ns#"
   xmlns:rdf="http://www.w3.org/1999/02/22-rdf-syntax-ns#"
   xmlns:svg="http://www.w3.org/2000/svg"
   xmlns="http://www.w3.org/2000/svg"
   xmlns:sodipodi="http://sodipodi.sourceforge.net/DTD/sodipodi-0.dtd"
   xmlns:inkscape="http://www.inkscape.org/namespaces/inkscape"
   width="16"
   height="16"
   viewBox="0 0 4.2333332 4.2333332"
   version="1.1"
   id="svg8"
   inkscape:version="0.92+devel (d0930c9bda, 2017-08-13, custom)"
   sodipodi:docname="glyph-phone.svg">
  <defs
     id="defs2" />
  <sodipodi:namedview
     id="base"
     pagecolor="#002466"
     bordercolor="#ffffff"
     borderopacity="0.38039216"
     inkscape:pageopacity="1"
     inkscape:pageshadow="2"
     inkscape:zoom="20.275734"
     inkscape:cx="22.83385"
     inkscape:cy="7.2624734"
     inkscape:document-units="px"
     inkscape:current-layer="svg8"
     inkscape:document-rotation="0"
     showgrid="false"
     inkscape:showpageshadow="false"
     borderlayer="true"
     inkscape:window-width="1920"
     inkscape:window-height="1027"
     inkscape:window-x="0"
     inkscape:window-y="24"
     inkscape:window-maximized="1"
     units="px" />
  <metadata
     id="metadata5">
    <rdf:RDF>
      <cc:Work
         rdf:about="">
        <dc:format>image/svg+xml</dc:format>
        <dc:type
           rdf:resource="http://purl.org/dc/dcmitype/StillImage" />
        <dc:title />
      </cc:Work>
    </rdf:RDF>
  </metadata>
  <path
     style="fill:#d0d0d0;stroke-width:2.16700006"
     d="M 0.88867188,5.3339844 H 3.5566406 c 0.8892571,1.5e-6 0.8886719,0.8886718 0.8886719,0.8886718 V 6.6660156 C 4.4453133,7.4046219 5.0387379,7.9999985 5.7773438,8 h 4.4453122 c 0.738605,-1.1e-6 1.332031,-0.5953819 1.332032,-1.3339844 V 6.2226562 c 0,10e-8 -5.9e-4,-0.8886699 0.888671,-0.8886718 h 2.667969 C 16.000595,5.3339848 16,6.2226562 16,6.2226562 v 1.3925782 c -1.081233,1.82387 -3.049554,3.0507816 -5.332031,3.0507816 H 5.3320312 C 3.0495548,10.666016 1.0812449,9.4390829 0,7.6152344 V 6.2226562 c 0,10e-8 -5.9291521e-4,-0.8886677 0.88867188,-0.8886718 z"
     transform="scale(0.26458333)"
     id="rect812" />
</svg>
